svg/u1f509.svg

<svg viewBox="0 0 128 128" xmlns="http://www.w3.org/2000/svg">
  <g>
    <path d="M91.2,37.8" fill="none" stroke="#B0BEC5" stroke-miterlimit="10"/>
    <path d="M92.47,59.64 c2.11-6.45,0.76-13.82-4.17-19.14c-4.94-5.32-12.19-7.22-18.78-5.59" fill="none" stroke="#B0BEC5" stroke-width="5" stroke-linecap="round" stroke-miterlimit="10"/>
  </g>
  <g>
    <path d="M93.43,98.52c0,0-23.66-6.21-41.21,10.42c-7.55,7.16-12.89,12.47-14.18,13.76 c-4.03,4.03-14.4,2.96-24.47-7.11s-11.63-22.1-7.6-26.12c0.6-0.6,7.34-6.59,14.82-14.5c7.99-8.46,6.55-20.27,7.06-27.56 c0.61-8.76,2.22-12.23,2.22-12.23L93.43,98.52z" fill="#8CAFBF"/>
    <ellipse cx="61.76" cy="66.84" rx="17.92" ry="44.8" fill="#54646D" transform="matrix(0.7071 -0.7071 0.7071 0.7071 -29.1715 63.246)"/>
    <path d="M80.73,63.64c0,0-17.36,13.61-8.17,32.67L40.37,69.69l-12.4-26.81l2.11-7.71l10.15-2.5l15.66,7.83 l18.54,13.67L80.73,63.64z" fill="#2C3640"/>
    <path d="M43.92,70.01l8.7-5.97l12.1,12.1l-5.22,9.28C50.08,78.02,43.92,70.01,43.92,70.01z" fill="#8CAFBF"/>
    <ellipse cx="58.67" cy="70.09" rx="4.06" ry="8.56" fill="#B2DFEC" transform="matrix(0.7071 -0.7071 0.7071 0.7071 -32.3768 62.0142)"/>
    <path d="M23.59,79.02c3.34-4.36,3.6-6.55,4.73-11.93c3.19,6.97,8.41,13.99,14.48,18.67 c-2.69,0.92-3.01-0.96-5.51,0.4c-2.08,1.13-3.99,2.54-5.85,4.01c-4.22,3.31,1.9-2.03-1.8,1.75c-0.6,0.62-6.05,6.37-6.05,6.37 s-3.31-0.57-4.27-2.13c-0.58-0.95-2.13-8.11-2.13-8.11S22.6,80.31,23.59,79.02z" fill="#B2DFEC"/>
  </g>
  <g>
    <path d="M23.57,122.75c-0.04-0.01-0.09-0.01-0.15-0.03c-0.01,0-0.02,0-0.03-0.01 c-0.01,0-0.03-0.01-0.05-0.01c0.13,0.06,0.26,0.12,0.38,0.18l-0.1-0.13C23.6,122.76,23.59,122.75,23.57,122.75z" fill="#8CAFBF"/>
    <path d="M53.6,107.7c-0.45,0.39-0.91,0.79-1.38,1.24C52.68,108.51,53.14,108.1,53.6,107.7z" fill="#8CAFBF"/>
    <path d="M20.46,122.22c-0.07-0.01-0.13-0.02-0.18-0.03C20.34,122.2,20.4,122.21,20.46,122.22z" fill="#738A97"/>
    <path d="M21.27,122.36c-0.28-0.05-0.56-0.09-0.81-0.14C20.69,122.26,20.96,122.31,21.27,122.36z" fill="#738A97"/>
    <path d="M20.05,122.15c-0.12-0.02-0.23-0.04-0.31-0.05C19.83,122.12,19.93,122.13,20.05,122.15z" fill="#738A97"/>
    <path d="M20.28,122.19c-0.08-0.01-0.16-0.03-0.23-0.04C20.12,122.17,20.19,122.18,20.28,122.19z" fill="#738A97"/>
    <path d="M22.6,122.59c-0.13-0.02-0.25-0.04-0.37-0.06C22.36,122.54,22.48,122.57,22.6,122.59z" fill="#738A97"/>
    <path d="M23.17,122.68c-0.16-0.03-0.35-0.06-0.57-0.1C22.78,122.62,22.97,122.65,23.17,122.68z" fill="#738A97"/>
    <path d="M21.92,122.47c-0.24-0.04-0.46-0.08-0.65-0.11C21.49,122.4,21.71,122.43,21.92,122.47z" fill="#738A97"/>
    <path d="M22.23,122.52c-0.1-0.02-0.2-0.03-0.31-0.05C22.02,122.49,22.13,122.51,22.23,122.52z" fill="#738A97"/>
    <path d="M19.6,122.08c-0.04-0.01-0.06-0.01-0.08-0.01C19.54,122.07,19.57,122.07,19.6,122.08z" fill="#738A97"/>
    <path d="M54.91,106.65c-0.43,0.33-0.86,0.67-1.3,1.05C54.03,107.33,54.47,107,54.91,106.65z" fill="#738A97"/>
    <path d="M23.17,122.68c0.06,0.01,0.12,0.02,0.17,0.03l0,0C23.28,122.7,23.22,122.69,23.17,122.68z" fill="#738A97"/>
    <path d="M19.74,122.1c-0.06-0.01-0.1-0.02-0.14-0.02C19.64,122.09,19.69,122.09,19.74,122.1z" fill="#738A97"/>
    <path d="M19.53,122.07C19.51,122.06,19.51,122.06,19.53,122.07L19.53,122.07z" fill="#738A97"/>
    <path d="M23.57,122.75c0.02,0,0.03,0.01,0.05,0.01C23.62,122.76,23.6,122.75,23.57,122.75z" fill="#738A97"/>
    <path d="M23.34,122.71L23.34,122.71c0.02,0,0.03,0.01,0.05,0.01C23.37,122.72,23.35,122.71,23.34,122.71z" fill="#738A97"/>
    <path d="M23.38,122.72c0.01,0,0.02,0,0.03,0.01C23.4,122.72,23.39,122.72,23.38,122.72z" fill="#738A97"/>
    <path d="M23.41,122.72c0.07,0.01,0.12,0.02,0.15,0.03C23.51,122.74,23.47,122.73,23.41,122.72z" fill="#738A97"/>
  </g>
  <g>
    <path d="M32.96,124.82c-0.22,0.02-0.44,0.04-0.66,0.04C32.53,124.86,32.75,124.84,32.96,124.82z" fill="#427687"/>
    <path d="M37.32,123.31c-0.07,0.05-0.14,0.1-0.21,0.15C37.18,123.41,37.25,123.36,37.32,123.31z" fill="#427687"/>
    <path d="M36.28,123.95c-0.05,0.02-0.1,0.04-0.14,0.06C36.18,123.99,36.23,123.97,36.28,123.95z" fill="#427687"/>
    <path d="M35.34,124.33c-0.12,0.04-0.25,0.08-0.37,0.12C35.1,124.41,35.22,124.37,35.34,124.33z" fill="#427687"/>
    <path d="M31.94,124.87c-0.48,0-0.98-0.01-1.49-0.06C30.96,124.85,31.46,124.87,31.94,124.87z" fill="#427687"/>
    <path d="M34.19,124.64c-0.21,0.04-0.43,0.08-0.66,0.11C33.76,124.72,33.98,124.68,34.19,124.64z" fill="#427687"/>
    <path d="M52.36,108.82L52.36,108.82c-0.05,0.04-0.09,0.08-0.14,0.12C52.27,108.9,52.32,108.86,52.36,108.82z " fill="#427687"/>
    <path d="M23.62,122.76c9.26,1.56,12.14-1.92,12.14-1.92c3.35-3.82,9.99-10.46,12.82-13.26 c-6.16-2.25-11.84-5.62-16.61-10.38c-5.74-5.74-10.31-14.07-12.44-20.91c-6.97,7.26-13,12.62-13.57,13.19 c-4.03,4.03-2.47,16.05,7.6,26.12c5.9,5.9,11.88,8.69,16.65,9.19c-1.99-0.22-4.19-0.83-6.51-1.9L23.62,122.76z" fill="#427687"/>
    <path d="M42.79,118.02c-0.92,0.89-1.72,1.68-2.4,2.36C41.07,119.71,41.87,118.92,42.79,118.02z" fill="#54646D"/>
    <path d="M38.05,122.7c-0.22,0.22-0.47,0.42-0.73,0.61C37.58,123.12,37.83,122.92,38.05,122.7z" fill="#54646D"/>
    <path d="M36.13,124.01c-0.25,0.12-0.52,0.22-0.79,0.32C35.62,124.23,35.88,124.13,36.13,124.01z" fill="#54646D"/>
    <path d="M37.11,123.46c-0.26,0.18-0.54,0.34-0.83,0.49C36.57,123.8,36.85,123.63,37.11,123.46z" fill="#54646D"/>
    <path d="M43.74,117.09c2.3-2.24,5.18-5.02,8.49-8.15l0,0l0,0C48.92,112.07,46.04,114.85,43.74,117.09z" fill="#54646D"/>
    <path d="M30.45,124.8c-0.07-0.01-0.14-0.01-0.22-0.02C30.3,124.79,30.38,124.8,30.45,124.8z" fill="#54646D"/>
    <path d="M33.54,124.75c-0.19,0.03-0.38,0.05-0.57,0.07C33.16,124.8,33.35,124.78,33.54,124.75z" fill="#54646D"/>
    <path d="M32.3,124.86c-0.12,0-0.24,0-0.36,0C32.06,124.87,32.18,124.87,32.3,124.86z" fill="#54646D"/>
    <path d="M34.97,124.45c-0.25,0.07-0.51,0.14-0.78,0.19C34.46,124.58,34.72,124.52,34.97,124.45z" fill="#54646D"/>
    <path d="M35.77,120.83c0,0-2.89,3.49-12.14,1.92l0.1,0.13c2.32,1.07,4.52,1.68,6.51,1.9 c0.07,0.01,0.14,0.01,0.22,0.02c0.51,0.05,1.01,0.07,1.49,0.06c0.12,0,0.24,0,0.36,0c0.23-0.01,0.45-0.03,0.66-0.04 c0.19-0.02,0.38-0.04,0.57-0.07c0.22-0.03,0.44-0.07,0.66-0.11c0.27-0.06,0.53-0.12,0.78-0.19c0.13-0.04,0.25-0.08,0.37-0.12 c0.27-0.09,0.54-0.2,0.79-0.32c0.05-0.02,0.1-0.04,0.14-0.06c0.3-0.15,0.57-0.31,0.83-0.49c0.07-0.05,0.14-0.1,0.21-0.15 c0.26-0.19,0.51-0.39,0.73-0.61c0.4-0.4,1.2-1.2,2.34-2.32c0.68-0.67,1.49-1.46,2.4-2.36c0.3-0.3,0.62-0.61,0.95-0.93 c2.3-2.24,5.18-5.02,8.49-8.15l0,0c0.05-0.04,0.09-0.08,0.13-0.12c-1.28-0.36-2.53-0.79-3.77-1.24 C45.76,110.38,39.12,117.02,35.77,120.83z" fill="#2A4E56"/>
  </g>
  <path d="M71.63,98.63c-1.02-0.47-2.09-1.02-3.15-1.64c-6.02-3.54-11.66-7.07-11.66-7.07 c0.54,1.92-0.18,2.88,2.59,5.29c1.99,1.72,1.5,4.95-0.9,6c-4.83,2.12-7.36,3.78-8.59,5.05c0,0-0.5,0.5-1.33,1.32 c1.24,0.45,2.5,0.88,3.77,1.24c0.42-0.4,0.84-0.76,1.24-1.11c0.43-0.37,0.87-0.71,1.3-1.05c8.87-6.82,14.11-2.41,25.05-5.25 C79.95,101.4,76.16,100.72,71.63,98.63z M61.11,102.56c-0.68,0.37-1.36,0.76-2.04,1.17C59.74,103.32,60.42,102.93,61.11,102.56z M59.03,103.75c-1.39,0.85-2.77,1.82-4.12,2.89C56.26,105.57,57.64,104.61,59.03,103.75z M68.32,99.54c0.4-0.12,0.79-0.26,1.19-0.37 C69.12,99.29,68.72,99.42,68.32,99.54z M61.23,102.5c0.65-0.35,1.31-0.67,1.96-0.98C62.54,101.82,61.88,102.15,61.23,102.5z M63.47,101.39c0.61-0.28,1.21-0.54,1.82-0.78C64.69,100.85,64.08,101.12,63.47,101.39z M65.81,100.42c0.53-0.2,1.06-0.41,1.59-0.58 C66.87,100.01,66.34,100.21,65.81,100.42z" fill="#738A97"/>
  <path d="M20,83.35C14.28,89.42,7.78,96.09,7.78,96.09s-0.38,5.56,4.8,11.81c0,0,7.02-7.02,13.52-13.29 C22.43,90.04,20.72,85.68,20,83.35z" fill="#8CAFBF"/>
  <path d="M95.26,100.34c-8.26,8.26-28.9,0.09-47.99-19.01C28.17,62.23,20,41.6,28.26,33.34 s27.07,1.73,46.17,20.83C93.52,73.27,103.52,92.08,95.26,100.34z M31.9,36.99c-5.13,5.13,1.41,23.11,19.01,40.7 s35.57,24.14,40.7,19.01C96.74,91.57,90.2,73.59,72.6,56S37.03,31.86,31.9,36.99z" fill="#B3D0E0"/>
  <path d="M32.01,53.64c0.93,2.03,2.25,7.29,12.16,19.03c0.34,0.4,1.74,2.21,0.85,3.1 c-0.59,0.59-1.67-0.13-2.91-1.37c-4.84-4.84-9.37-10.97-12.77-18.1C27.42,52.27,30.72,50.84,32.01,53.64z" fill="#B2DFEC"/>
</svg>

<svg viewBox="0 0 128 128" xmlns="http://www.w3.org/2000/svg">
  <defs/>
  <path d="M90.094,58.863 Q93.176,49.44 86.466,42.199 Q79.741,34.957 70.12,37.337 Q69.115,37.586 68.228,37.051 Q67.342,36.516 67.093,35.51 Q66.844,34.505 67.379,33.618 Q67.914,32.732 68.92,32.483 Q81.401,29.396 90.134,38.801 Q98.843,48.199 94.846,60.417 Q94.524,61.402 93.601,61.87 Q92.677,62.338 91.693,62.016 Q90.708,61.694 90.24,60.771 Q89.772,59.847 90.094,58.863 Z" fill="#B0BEC5"/>
  <path d="M93.43,98.52 C93.43,98.52 69.77,92.31 52.22,108.94 C44.67,116.1 39.33,121.41 38.04,122.7 C34.01,126.73 23.64,125.66 13.57,115.59 C3.5,105.52 1.94,93.49 5.97,89.47 C6.57,88.87 13.31,82.88 20.79,74.97 C28.78,66.51 27.34,54.7 27.85,47.41 C28.46,38.65 30.07,35.18 30.07,35.18 L93.43,98.52 Z" fill="#8CAFBF"/>
  <path d="M74.433,54.167 C91.928,71.662 100.438,91.518 93.44,98.516 C86.442,105.514 66.586,97.005 49.09,79.509 C31.595,62.014 23.085,42.158 30.083,35.16 C37.082,28.162 56.937,36.672 74.433,54.167 Z" fill="#54646D"/>
  <path d="M80.73,63.64 C80.73,63.64 63.37,77.25 72.56,96.31 L40.37,69.69 L27.97,42.88 L30.08,35.17 L40.23,32.67 L55.89,40.5 L74.43,54.17 L80.73,63.64 Z" fill="#2C3640"/>
  <path d="M43.92,70.01 L52.62,64.04 L64.72,76.14 L59.5,85.42 C50.08,78.02 43.92,70.01 43.92,70.01 Z" fill="#8CAFBF"/>
  <path d="M61.54,67.218 C64.883,70.561 66.308,74.557 64.722,76.142 C63.137,77.728 59.141,76.303 55.799,72.96 C52.456,69.617 51.031,65.622 52.617,64.037 C54.202,62.451 58.197,63.876 61.54,67.218 Z" fill="#B2DFEC"/>
  <path d="M23.59,79.02 C26.93,74.66 27.19,72.47 28.32,67.09 C31.51,74.06 36.73,81.08 42.8,85.76 C40.11,86.68 39.79,84.8 37.29,86.16 C35.21,87.29 33.3,88.7 31.44,90.17 C27.22,93.48 33.34,88.14 29.64,91.92 C29.04,92.54 23.59,98.29 23.59,98.29 C23.59,98.29 20.28,97.72 19.32,96.16 C18.74,95.21 17.19,88.05 17.19,88.05 C17.19,88.05 22.6,80.31 23.59,79.02 Z" fill="#B2DFEC"/>
  <path d="M23.57,122.75 C23.53,122.74 23.48,122.74 23.42,122.72 C23.41,122.72 23.4,122.72 23.39,122.71 C23.38,122.71 23.36,122.7 23.34,122.7 C23.47,122.76 23.6,122.82 23.72,122.88 L23.62,122.75 C23.6,122.76 23.59,122.75 23.57,122.75 Z" fill="#8CAFBF"/>
  <path d="M53.6,107.7 C53.15,108.09 52.69,108.49 52.22,108.94 C52.68,108.51 53.14,108.1 53.6,107.7 Z" fill="#8CAFBF"/>
  <path d="M20.46,122.22 C20.39,122.21 20.33,122.2 20.28,122.19 C20.34,122.2 20.4,122.21 20.46,122.22 Z" fill="#738A97"/>
  <path d="M21.27,122.36 C20.99,122.31 20.71,122.27 20.46,122.22 C20.69,122.26 20.96,122.31 21.27,122.36 Z" fill="#738A97"/>
  <path d="M20.05,122.15 C19.93,122.13 19.82,122.11 19.74,122.1 C19.83,122.12 19.93,122.13 20.05,122.15 Z" fill="#738A97"/>
  <path d="M20.28,122.19 C20.2,122.18 20.12,122.16 20.05,122.15 C20.12,122.17 20.19,122.18 20.28,122.19 Z" fill="#738A97"/>
  <path d="M22.6,122.59 C22.47,122.57 22.35,122.55 22.23,122.53 C22.36,122.54 22.48,122.57 22.6,122.59 Z" fill="#738A97"/>
  <path d="M23.17,122.68 C23.01,122.65 22.82,122.62 22.6,122.58 C22.78,122.62 22.97,122.65 23.17,122.68 Z" fill="#738A97"/>
  <path d="M21.92,122.47 C21.68,122.43 21.46,122.39 21.27,122.36 C21.49,122.4 21.71,122.43 21.92,122.47 Z" fill="#738A97"/>
  <path d="M22.23,122.52 C22.13,122.5 22.03,122.49 21.92,122.47 C22.02,122.49 22.13,122.51 22.23,122.52 Z" fill="#738A97"/>
  <path d="M19.6,122.08 C19.56,122.07 19.54,122.07 19.52,122.07 C19.54,122.07 19.57,122.07 19.6,122.08 Z" fill="#738A97"/>
  <path d="M54.91,106.65 C54.48,106.98 54.05,107.32 53.61,107.7 C54.03,107.33 54.47,107 54.91,106.65 Z" fill="#738A97"/>
  <path d="M23.17,122.68 C23.23,122.69 23.29,122.7 23.34,122.71 L23.34,122.71 C23.28,122.7 23.22,122.69 23.17,122.68 Z" fill="#738A97"/>
  <path d="M19.74,122.1 C19.68,122.09 19.64,122.08 19.6,122.08 C19.64,122.09 19.69,122.09 19.74,122.1 Z" fill="#738A97"/>
  <path d="M23.57,122.75 C23.59,122.75 23.6,122.76 23.62,122.76 C23.62,122.76 23.6,122.75 23.57,122.75 Z" fill="#738A97"/>
  <path d="M23.41,122.72 C23.48,122.73 23.53,122.74 23.56,122.75 C23.51,122.74 23.47,122.73 23.41,122.72 Z" fill="#738A97"/>
  <path d="M32.96,124.82 C32.74,124.84 32.52,124.86 32.3,124.86 C32.53,124.86 32.75,124.84 32.96,124.82 Z" fill="#427687"/>
  <path d="M35.34,124.33 C35.22,124.37 35.09,124.41 34.97,124.45 C35.1,124.41 35.22,124.37 35.34,124.33 Z" fill="#427687"/>
  <path d="M31.94,124.87 C31.46,124.87 30.96,124.86 30.45,124.81 C30.96,124.85 31.46,124.87 31.94,124.87 Z" fill="#427687"/>
  <path d="M52.36,108.82 L52.36,108.82 C52.31,108.86 52.27,108.9 52.22,108.94 C52.27,108.9 52.32,108.86 52.36,108.82 Z" fill="#427687"/>
  <path d="M23.62,122.76 C32.88,124.32 35.76,120.84 35.76,120.84 C39.11,117.02 45.75,110.38 48.58,107.58 C42.42,105.33 36.74,101.96 31.97,97.2 C26.23,91.46 21.66,83.13 19.53,76.29 C12.56,83.55 6.53,88.91 5.96,89.48 C1.93,93.51 3.49,105.53 13.56,115.6 C19.46,121.5 25.44,124.29 30.21,124.79 C28.22,124.57 26.02,123.96 23.7,122.89 L23.62,122.76 Z" fill="#427687"/>
  <path d="M42.79,118.02 C41.87,118.91 41.07,119.7 40.39,120.38 C41.07,119.71 41.87,118.92 42.79,118.02 Z" fill="#54646D"/>
  <path d="M36.13,124.01 C35.88,124.13 35.61,124.23 35.34,124.33 C35.62,124.23 35.88,124.13 36.13,124.01 Z" fill="#54646D"/>
  <path d="M37.11,123.46 C36.85,123.64 36.57,123.8 36.28,123.95 C36.57,123.8 36.85,123.63 37.11,123.46 Z" fill="#54646D"/>
  <path d="M30.45,124.8 C30.38,124.79 30.31,124.79 30.23,124.78 C30.3,124.79 30.38,124.8 30.45,124.8 Z" fill="#54646D"/>
  <path d="M32.3,124.86 C32.18,124.86 32.06,124.86 31.94,124.86 C32.06,124.87 32.18,124.87 32.3,124.86 Z" fill="#54646D"/>
  <path d="M34.97,124.45 C34.72,124.52 34.46,124.59 34.19,124.64 C34.46,124.58 34.72,124.52 34.97,124.45 Z" fill="#54646D"/>
  <path d="M35.77,120.83 C35.77,120.83 32.88,124.32 23.63,122.75 L23.73,122.88 C26.05,123.95 28.25,124.56 30.24,124.78 C30.31,124.79 30.38,124.79 30.46,124.8 C30.97,124.85 31.47,124.87 31.95,124.86 C32.07,124.86 32.19,124.86 32.31,124.86 C32.54,124.85 32.76,124.83 32.97,124.82 C33.16,124.8 33.35,124.78 33.54,124.75 C33.76,124.72 33.98,124.68 34.2,124.64 C34.47,124.58 34.73,124.52 34.98,124.45 C35.11,124.41 35.23,124.37 35.35,124.33 C35.62,124.24 35.89,124.13 36.14,124.01 C36.19,123.99 36.24,123.97 36.28,123.95 C36.58,123.8 36.85,123.64 37.11,123.46 C37.18,123.41 37.25,123.36 37.32,123.31 C37.58,123.12 37.83,122.92 38.05,122.7 C38.45,122.3 39.25,121.5 40.39,120.38 C41.07,119.71 41.88,118.92 42.79,118.02 C43.09,117.72 43.41,117.41 43.74,117.09 C46.04,114.85 48.92,112.07 52.23,108.94 L52.23,108.94 C52.28,108.9 52.32,108.86 52.36,108.82 C51.08,108.46 49.83,108.03 48.59,107.58 C45.76,110.38 39.12,117.02 35.77,120.83 Z" fill="#2A4E56"/>
  <path d="M71.63,98.63 C70.61,98.16 69.54,97.61 68.48,96.99 C62.46,93.45 56.82,89.92 56.82,89.92 C57.36,91.84 56.64,92.8 59.41,95.21 C61.4,96.93 60.91,100.16 58.51,101.21 C53.68,103.33 51.15,104.99 49.92,106.26 C49.92,106.26 49.42,106.76 48.59,107.58 C49.83,108.03 51.09,108.46 52.36,108.82 C52.78,108.42 53.2,108.06 53.6,107.71 C54.03,107.34 54.47,107 54.9,106.66 C63.77,99.84 69.01,104.25 79.95,101.41 C79.95,101.4 76.16,100.72 71.63,98.63 Z M61.11,102.56 C60.43,102.93 59.75,103.32 59.07,103.73 C59.74,103.32 60.42,102.93 61.11,102.56 Z M59.03,103.75 C57.64,104.6 56.26,105.57 54.91,106.64 C56.26,105.57 57.64,104.61 59.03,103.75 Z M68.32,99.54 C68.72,99.42 69.11,99.28 69.51,99.17 C69.12,99.29 68.72,99.42 68.32,99.54 Z M61.23,102.5 C61.88,102.15 62.54,101.83 63.19,101.52 C62.54,101.82 61.88,102.15 61.23,102.5 Z M63.47,101.39 C64.08,101.11 64.68,100.85 65.29,100.61 C64.69,100.85 64.08,101.12 63.47,101.39 Z M65.81,100.42 C66.34,100.22 66.87,100.01 67.4,99.84 C66.87,100.01 66.34,100.21 65.81,100.42 Z" fill="#738A97"/>
  <path d="M20,83.35 C14.28,89.42 7.78,96.09 7.78,96.09 C7.78,96.09 7.4,101.65 12.58,107.9 C12.58,107.9 19.6,100.88 26.1,94.61 C22.43,90.04 20.72,85.68 20,83.35 Z" fill="#8CAFBF"/>
  <path d="M95.26,100.34 C87,108.6 66.36,100.43 47.27,81.33 C28.17,62.23 20,41.6 28.26,33.34 C36.52,25.08 55.33,35.07 74.43,54.17 C93.52,73.27 103.52,92.08 95.26,100.34 Z M31.9,36.99 C26.77,42.12 33.31,60.1 50.91,77.69 C68.51,95.28 86.48,101.83 91.61,96.7 C96.74,91.57 90.2,73.59 72.6,56 C55,38.41 37.03,31.86 31.9,36.99 Z" fill="#B3D0E0"/>
  <path d="M32.01,53.64 C32.94,55.67 34.26,60.93 44.17,72.67 C44.51,73.07 45.91,74.88 45.02,75.77 C44.43,76.36 43.35,75.64 42.11,74.4 C37.27,69.56 32.74,63.43 29.34,56.3 C27.42,52.27 30.72,50.84 32.01,53.64 Z" fill="#B2DFEC"/>
</svg>
